X:330
T: Johnnie Macclejohn
S: "ITM Session Tunes vol 2" ("Sully")
M: 4/4
L: 1/8
R: reel
K: D
FA A2 BAFA|BAFA Bc d2|FA A2 BAFA|BdAF E2 D2 :|
f3e d2 dA|BAFA BAFA|f3e d2 dA|BdAF E2 D2 :|
